X: 551
T: Fishers Reel
%R: reel
Z: 2018 John Chambers <jc:trillian.mit.edu>
B: John Treat - "Gamut for the Fifes", 1779, p.55 #1
F: https://archive.org/details/GamutFortheFifes
N: In bar 3, the two first notes (gb) are 8th notes; changed to fix the rhythm.
M: C|
L: 1/8
K: G
% - - - - - - - - - - - - - - - - - - - - - - - - -
|:\
g2bg bgbg | f2af afaf | g2b2 efge | dBGB G4 ::\
DFAF EGBG | DFAc BABG | DFAF DFAc | BcAF G4 :|
% - - - - - - - - - - - - - - - - - - - - - - - - -
